src/main/resources/icons/RIcons/icons/fileTypes/rMarkdown.svg

<svg width="16" height="16" viewBox="0 0 16 16" fill="none" xmlns="http://www.w3.org/2000/svg">
<path d="M1 16H16V9H1V16Z" fill="#40B6E0" fill-opacity="0.7"/>
<path d="M7 1L3 5H7V1Z" fill="#9AA7B0" fill-opacity="0.8"/>
<path d="M8 1V6H3V8H13V1H8Z" fill="#9AA7B0" fill-opacity="0.8"/>
<path d="M7 10H7.7488L9 12L10.1832 10H11V15H10V12L9 13.5L8 12V15H7V10Z" fill="#231F20" fill-opacity="0.7"/>
<path fill-rule="evenodd" clip-rule="evenodd" d="M13.649 10H12V15H13.649C15.04 15 16 13.921 16 12.5C16 11.093 15.04 10 13.649 10ZM13 14V11H13.649C14.578 11 15 11.522 15 12.5V12.515C15 13.493 14.578 14 13.649 14H13Z" fill="#231F20" fill-opacity="0.7"/>
<path fill-rule="evenodd" clip-rule="evenodd" d="M2 15V10H4.25675C4.88441 10 5.37102 10.1786 5.69543 10.5071C5.97047 10.7857 6.11857 11.1786 6.11857 11.65V11.6643C6.11857 12.4714 5.68837 12.9786 5.06072 13.2143L6.26667 15H4.99725L3.93939 13.4H3.08606V15H2ZM3.08606 12.4286H4.18623C4.71515 12.4286 5.0184 12.1429 5.0184 11.7214V11.7071C5.0184 11.2357 4.69399 10.9929 4.16507 10.9929H3.08606V12.4286Z" fill="#231F20" fill-opacity="0.7"/>
</svg>

<svg width="16" height="16" viewBox="0 0 16 16" fill="none" xmlns="http://www.w3.org/2000/svg"><rect id="frame" width="16" height="16" fill="none"/><path d="M1 16h15V9H1v7z" fill="#40B6E0" fill-opacity=".7"/><path d="M7 1L3 5h4V1z" fill="#9AA7B0" fill-opacity=".8"/><path d="M8 1v5H3v2h10V1H8z" fill="#9AA7B0" fill-opacity=".8"/><path d="M7 10h.749L9 12l1.183-2H11v5h-1v-3l-1 1.5L8 12v3H7v-5z" fill="#231F20" fill-opacity=".7"/><path fill-rule="evenodd" clip-rule="evenodd" d="M13.649 10H12v5h1.649C15.04 15 16 13.921 16 12.5c0-1.407-.96-2.5-2.351-2.5zM13 14v-3h.649c.929 0 1.351.522 1.351 1.5v.015c0 .978-.422 1.485-1.351 1.485H13z" fill="#231F20" fill-opacity=".7"/><path fill-rule="evenodd" clip-rule="evenodd" d="M2 15v-5h2.257c.627 0 1.114.179 1.438.507.275.279.424.672.424 1.143v.014c0 .807-.43 1.315-1.058 1.55L6.267 15h-1.27L3.94 13.4h-.853V15H2zm1.086-2.571h1.1c.53 0 .832-.286.832-.708v-.014c0-.471-.324-.714-.853-.714H3.086v1.436z" fill="#231F20" fill-opacity=".7"/></svg>
